dist/icons/svgs/arrow-right-arrow-left-outline.svg

<svg xmlns="http://www.w3.org/2000/svg" width="24" height="24" fill="currentcolor" class="icon-arrow-right-arrow-left-outline" viewBox="0 0 24 24">
  <path d="M7.27344 21.4141L3.52344 17.6641C3.13281 17.3125 3.13281 16.7266 3.52344 16.3359L7.27344 12.625C7.625 12.2344 8.21094 12.2344 8.5625 12.625C8.95312 12.9766 8.95312 13.5625 8.5625 13.9141L6.41406 16.0625H19.8125C20.3203 16.0625 20.75 16.4922 20.75 17C20.75 17.5469 20.3203 17.9375 19.8125 17.9375L6.41406 17.9766L8.5625 20.125C8.95312 20.4766 8.95312 21.0625 8.5625 21.4141C8.21094 21.8047 7.625 21.8047 7.27344 21.4141ZM20.4766 7.66406L16.7266 11.4141C16.3359 11.8047 15.75 11.8047 15.3984 11.4141C15.0078 11.0625 15.0078 10.4766 15.3984 10.0859L17.5469 7.9375H4.1875C3.64062 7.9375 3.25 7.54688 3.25 7C3.25 6.49219 3.64062 6.0625 4.1875 6.0625H17.5469L15.3984 3.91406C15.0078 3.5625 15.0078 2.97656 15.3984 2.58594C15.75 2.23438 16.3359 2.23438 16.7266 2.58594L20.4766 6.375C20.8281 6.72656 20.8281 7.3125 20.4766 7.66406Z"/>
</svg>

<svg xmlns="http://www.w3.org/2000/svg" width="24" height="24" fill="currentColor" class="icon-arrow-right-arrow-left-outline" viewBox="0 0 24 24">
  <path d="m7.273 21.414-3.75-3.75c-.39-.352-.39-.937 0-1.328l3.75-3.711a.856.856 0 0 1 1.29 0c.39.352.39.938 0 1.29l-2.149 2.148h13.399a.95.95 0 0 1 .937.937c0 .547-.43.938-.937.938l-13.399.039 2.149 2.148c.39.352.39.938 0 1.29a.856.856 0 0 1-1.29 0m13.204-13.75-3.75 3.75c-.391.39-.977.39-1.329 0-.39-.351-.39-.937 0-1.328l2.149-2.149H4.187c-.546 0-.937-.39-.937-.937 0-.508.39-.937.938-.937h13.359l-2.149-2.149c-.39-.352-.39-.937 0-1.328.352-.352.938-.352 1.329 0l3.75 3.789a.92.92 0 0 1 0 1.29"/>
</svg>
